icons/Map/gas-station-line.svg

<svg viewBox="0 0 24 24" xmlns="http://www.w3.org/2000/svg"><path d="M14 19H15V21H2V19H3V4C3 3.44772 3.44772 3 4 3H13C13.5523 3 14 3.44772 14 4V12H16C17.1046 12 18 12.8954 18 14V18C18 18.5523 18.4477 19 19 19C19.5523 19 20 18.5523 20 18V11H18C17.4477 11 17 10.5523 17 10V6.41421L15.3431 4.75736L16.7574 3.34315L21.7071 8.29289C21.9024 8.48816 22 8.74408 22 9V18C22 19.6569 20.6569 21 19 21C17.3431 21 16 19.6569 16 18V14H14V19ZM5 19H12V13H5V19ZM5 5V11H12V5H5Z"/></svg>

<svg xmlns="http://www.w3.org/2000/svg" viewBox="0 0 24 24">
    <g>
        <path fill="none" d="M0 0h24v24H0z"/>
        <path d="M14 19h1v2H2v-2h1V4a1 1 0 0 1 1-1h9a1 1 0 0 1 1 1v8h2a2 2 0 0 1 2 2v4a1 1 0 0 0 2 0v-7h-2a1 1 0 0 1-1-1V6.414l-1.657-1.657 1.414-1.414 4.95 4.95A.997.997 0 0 1 22 9v9a3 3 0 0 1-6 0v-4h-2v5zm-9 0h7v-6H5v6zM5 5v6h7V5H5z"/>
    </g>
</svg>
